.local/share/icons/Gruvbox-Plus-Dark/actions/16/connector-avoid.svg

<svg width="16" height="16" version="1.1" xmlns="http://www.w3.org/2000/svg">
  <defs>
    <style id="current-color-scheme" type="text/css">.ColorScheme-Text { color:#ebdbb2; } .ColorScheme-Highlight { color:#458588; }</style>
  </defs>
  <path class="ColorScheme-Text" d="m1 6v4h9v-4zm1 1h7v2h-7zm0-6c-1 0-1 1-1 1v1c0 1 1 1 1 1h4c1 0 1-1 1-1h5v9h-2c-1 0-1 1-1 1v1c0 1 1 1 1 1h4c1 0 1-1 1-1v-1c0-1-1-1-1-1h-1v-10h-6c0-1-1-1-1-1z" fill="currentColor"/>
</svg>

<svg xmlns="http://www.w3.org/2000/svg" width="16" height="16" version="1.1">
 <defs>
  <style id="current-color-scheme" type="text/css">
   .ColorScheme-Text { color:#565656; } .ColorScheme-Highlight { color:#4285f4; }
  </style>
 </defs>
 <path style="fill:currentColor" class="ColorScheme-Text" d="M 1,6 V 10 H 10 V 6 Z M 2,7 H 9 V 9 H 2 Z M 1,1 C 0,1 0,2 0,2 V 3 C 0,4 1,4 1,4 H 5 C 6,4 6,3 6,3 H 12 V 12 H 10 C 9,12 9,13 9,13 V 14 C 9,15 10,15 10,15 H 14 C 15,15 15,14 15,14 V 13 C 15,12 14,12 14,12 H 13 V 2 H 6 C 6,1 5,1 5,1 Z"/>
</svg>
